devices/24/drive-harddisk.svg

<?xml version="1.0" encoding="UTF-8" standalone="no"?>
<!-- Created with Inkscape (http://www.inkscape.org/) -->

<svg
   xmlns:svg="http://www.w3.org/2000/svg"
   xmlns="http://www.w3.org/2000/svg"
   xmlns:xlink="http://www.w3.org/1999/xlink"
   version="1.0"
   width="24"
   height="24"
   id="svg2">
  <defs
     id="defs4">
    <linearGradient
       id="linearGradient5048">
      <stop
         id="stop5050"
         style="stop-color:black;stop-opacity:0"
         offset="0" />
      <stop
         id="stop5056"
         style="stop-color:black;stop-opacity:1"
         offset="0.5" />
      <stop
         id="stop5052"
         style="stop-color:black;stop-opacity:0"
         offset="1" />
    </linearGradient>
    <linearGradient
       x1="302.85715"
       y1="366.64789"
       x2="302.85715"
       y2="609.50507"
       id="linearGradient2570"
       xlink:href="#linearGradient5048"
       gradientUnits="userSpaceOnUse"
       gradientTransform="matrix(0.03776775,0,0,0.01085997,-1.650341,17.380799)" />
    <radialGradient
       cx="605.71429"
       cy="486.64789"
       r="117.14286"
       fx="605.71429"
       fy="486.64789"
       id="radialGradient2567"
       xlink:href="#linearGradient5060"
       gradientUnits="userSpaceOnUse"
       gradientTransform="matrix(0.02218262,0,0,0.01085997,7.7407365,17.380799)" />
    <linearGradient
       id="linearGradient5060">
      <stop
         id="stop5062"
         style="stop-color:black;stop-opacity:1"
         offset="0" />
      <stop
         id="stop5064"
         style="stop-color:black;stop-opacity:0"
         offset="1" />
    </linearGradient>
    <radialGradient
       cx="605.71429"
       cy="486.64789"
       r="117.14286"
       fx="605.71429"
       fy="486.64789"
       id="radialGradient2564"
       xlink:href="#linearGradient5060"
       gradientUnits="userSpaceOnUse"
       gradientTransform="matrix(-0.02218262,0,0,0.01085997,16.259269,17.380799)" />
    <linearGradient
       id="linearGradient3341">
      <stop
         id="stop3343"
         style="stop-color:#333;stop-opacity:1"
         offset="0" />
      <stop
         id="stop3345"
         style="stop-color:black;stop-opacity:1"
         offset="1" />
    </linearGradient>
    <linearGradient
       x1="27.566711"
       y1="44.514233"
       x2="27.566711"
       y2="52.980434"
       id="linearGradient2556"
       xlink:href="#linearGradient3341"
       gradientUnits="userSpaceOnUse"
       gradientTransform="matrix(0.3655652,0,0,0.4810035,0.296554,-3.051373)" />
    <linearGradient
       id="linearGradient2215">
      <stop
         id="stop2223"
         style="stop-color:#555556;stop-opacity:1"
         offset="0" />
      <stop
         id="stop2219"
         style="stop-color:#0c0c0d;stop-opacity:1"
         offset="1" />
    </linearGradient>
    <linearGradient
       x1="53.99139"
       y1="87.89592"
       x2="53.99139"
       y2="104.28131"
       id="linearGradient2553"
       xlink:href="#linearGradient2215"
       gradientUnits="userSpaceOnUse"
       gradientTransform="matrix(0.1904597,0,0,0.2485308,0.090799,-3.484712)" />
    <linearGradient
       id="linearGradient3484">
      <stop
         id="stop3486"
         style="stop-color:#9b9b9b;stop-opacity:1"
         offset="0" />
      <stop
         id="stop3488"
         style="stop-color:#b6b6b6;stop-opacity:1"
         offset="1" />
    </linearGradient>
    <linearGradient
       x1="7.8514447"
       y1="19.967693"
       x2="7.8514447"
       y2="7.034781"
       id="linearGradient2561"
       xlink:href="#linearGradient3484"
       gradientUnits="userSpaceOnUse"
       gradientTransform="matrix(0.9892473,0,0,1.4696392,0.129032,-10.33859)" />
    <linearGradient
       id="linearGradient7056">
      <stop
         id="stop7064"
         style="stop-color:#e1e1e2;stop-opacity:1"
         offset="0" />
      <stop
         id="stop7060"
         style="stop-color:#d2d2d3;stop-opacity:1"
         offset="1" />
    </linearGradient>
    <linearGradient
       x1="-35.53907"
       y1="-144.20657"
       x2="-35.53907"
       y2="-108.32133"
       id="linearGradient2559"
       xlink:href="#linearGradient7056"
       gradientUnits="userSpaceOnUse"
       gradientTransform="matrix(0.3618486,0,0,0.5333333,27.689672,76.910171)" />
    <linearGradient
       id="linearGradient7056-300">
      <stop
         id="stop3597"
         style="stop-color:#cbcbcb;stop-opacity:1"
         offset="0" />
      <stop
         id="stop3599"
         style="stop-color:#bdbdbe;stop-opacity:1"
         offset="1" />
    </linearGradient>
    <linearGradient
       x1="35.341114"
       y1="37.03133"
       x2="35.341114"
       y2="13.899854"
       id="linearGradient3371"
       xlink:href="#linearGradient7056-300"
       gradientUnits="userSpaceOnUse"
       gradientTransform="matrix(0.569328,0,0,0.6484696,-4.8442861,-7.0136316)" />
    <linearGradient
       id="linearGradient3776">
      <stop
         id="stop3778"
         style="stop-color:#a0a0a1;stop-opacity:1"
         offset="0" />
      <stop
         id="stop3780"
         style="stop-color:#e0e0e1;stop-opacity:1"
         offset="1" />
    </linearGradient>
    <linearGradient
       x1="44.261497"
       y1="53.951618"
       x2="44.261497"
       y2="28.299864"
       id="linearGradient3373"
       xlink:href="#linearGradient3776"
       gradientUnits="userSpaceOnUse"
       gradientTransform="matrix(0.1150977,0,0,0.1380877,7.972223,6.390092)" />
  </defs>
  <g
     id="layer1">
    <rect
       width="18.236429"
       height="2.6374204"
       x="2.8817775"
       y="21.362579"
       id="rect2723"
       style="opacity:0.40206185;fill:url(#linearGradient2570);fill-opacity:1;fill-rule:nonzero;stroke:none;stroke-width:1;marker:none;visibility:visible;display:inline;overflow:visible" />
    <path
       d="m 21.109321,21.362672 c 0,0 0,2.637274 0,2.637274 1.142348,0.005 2.761647,-0.59088 2.761647,-1.318806 0,-0.727927 -1.274774,-1.318468 -2.761647,-1.318468 z"
       id="path2725"
       style="opacity:0.40206185;fill:url(#radialGradient2567);fill-opacity:1;fill-rule:nonzero;stroke:none;stroke-width:1;marker:none;visibility:visible;display:inline;overflow:visible" />
    <path
       d="m 2.890679,21.362672 c 0,0 0,2.637274 0,2.637274 -1.142353,0.005 -2.761647,-0.59088 -2.761647,-1.318806 0,-0.727927 1.274779,-1.318468 2.761647,-1.318468 z"
       id="path2727"
       style="opacity:0.40206185;fill:url(#radialGradient2564);fill-opacity:1;fill-rule:nonzero;stroke:none;stroke-width:1;marker:none;visibility:visible;display:inline;overflow:visible" />
    <path
       d="m 0.526971,18.653166 c 7.647271,0 15.29454,0 22.941812,0 0.06162,0.157007 0.01,0.227438 0.02697,0.417691 -0.466387,3.38005 -0.347132,3.410657 -1.191656,3.410657 -0.330786,0.04823 -13.33742,0 -20.654254,0 -0.917139,0 -0.685406,0.06576 -1.149843,-3.978565 l 0.026971,0.150217 z"
       id="rect2992"
       style="fill:url(#linearGradient2553);fill-opacity:1;fill-rule:nonzero;stroke:url(#linearGradient2556);stroke-width:0.99999994;stroke-linecap:butt;stroke-linejoin:miter;stroke-miterlimit:4;stroke-opacity:1;stroke-dasharray:none;stroke-dashoffset:0;marker:none;visibility:visible;display:inline;overflow:visible;enable-background:accumulate" />
    <path
       d="M 2.524268,1.9486449 0.522616,18.483328 c -0.014949,0 -0.022616,0.0044 -0.022616,0.01667 l 23,0 c 0,-0.01232 -0.0077,-0.01667 -0.02261,-0.01667 L 21.133502,1.6151021 c 0,0 -0.287877,-1.11510209 -1.394773,-1.11510209 -1.055161,0 -14.633584,0 -15.745212,0 -1.163309,0 -1.469249,1.44864489 -1.469249,1.44864489 z"
       id="rect2990"
       style="fill:url(#linearGradient2559);fill-opacity:1;fill-rule:nonzero;stroke:url(#linearGradient2561);stroke-width:0.99999994;stroke-linecap:round;stroke-linejoin:round;stroke-miterlimit:4;stroke-opacity:1;stroke-dasharray:none;stroke-dashoffset:0;marker:none;visibility:visible;display:inline;overflow:visible;enable-background:accumulate" />
    <path
       d="m 1.499053,18.5 21.001895,0"
       id="path2215"
       style="opacity:0.6;fill:none;stroke:white;stroke-width:0.99999994;stroke-linecap:round;stroke-linejoin:round;stroke-miterlimit:4;stroke-opacity:1;stroke-dasharray:none;display:inline" />
    <path
       d="M 5.6666664,3 4.1090087,4.0379919 3.4756754,7.3962005 C 3.3801796,7.6270213 3.3216215,7.8585813 3.3216215,8.108548 c 0,0.01388 -3.189e-4,0.026879 0,0.040705 l -0.017117,0.1017639 c 0.011483,4.916e-4 0.022813,-6.083e-4 0.034234,0 C 3.3844405,8.8097492 3.6784911,9.3261172 4.16036,9.7571227 3.1273024,10.620126 2.5,11.688077 2.5,12.850747 2.5,15.698353 6.1716821,17.999999 10.699098,18 c 0.282963,0 0.563023,-0.0028 0.838739,-0.02035 l 7.873874,0 L 21.5,16.16825 18.949548,4.0379919 17.357655,3 5.6666664,3 z"
       id="path3365"
       style="opacity:0.4;fill:white;fill-opacity:1;fill-rule:nonzero;stroke:none;stroke-width:0.8855623;marker:none;visibility:visible;display:inline;overflow:visible;enable-background:accumulate" />
    <path
       d="M 5.6682911,2 4.1106334,3.0379919 3.4773001,6.3962009 c -0.095496,0.2308207 -0.1540538,0.4623805 -0.1540538,0.7123473 0,0.013879 -3.19e-4,0.026879 0,0.040705 l -0.017117,0.101764 c 0.011483,4.916e-4 0.022813,-6.084e-4 0.034234,0 C 3.3860653,7.80975 3.6801159,8.326118 4.1619849,8.7571235 3.1289272,9.6201257 2.5016248,10.688076 2.5016248,11.850747 c 0,2.847606 3.671682,5.149252 8.1990982,5.149253 0.282963,0 0.563022,-0.0028 0.838739,-0.02035 l 7.873874,0 2.088289,-1.8114 L 18.951172,3.0379919 17.35928,2 5.6682911,2 z"
       id="path3367"
       style="fill:url(#linearGradient3371);fill-opacity:1;fill-rule:nonzero;stroke:none;stroke-width:0.8855623;marker:none;visibility:visible;display:inline;overflow:visible;enable-background:accumulate" />
    <path
       d="m 14.5,12 c 2.96e-4,0.828375 -1.119077,1.499999 -2.5,1.499999 C 10.619079,13.499999 9.4997043,12.828375 9.5000003,12 9.4997043,11.171624 10.619079,10.5 12,10.5 c 1.380923,0 2.500296,0.671624 2.5,1.5 z"
       id="path3369"
       style="fill:#d4d4d5;fill-opacity:1;fill-rule:nonzero;stroke:url(#linearGradient3373);stroke-width:1.00000012;stroke-linecap:round;stroke-linejoin:round;stroke-miterlimit:4;stroke-opacity:1;stroke-dasharray:none;stroke-dashoffset:0;marker:none;visibility:visible;display:inline;overflow:visible;enable-background:accumulate" />
  </g>
</svg>

<?xml version="1.0" encoding="UTF-8" standalone="no"?>
<!-- Created with Inkscape (http://www.inkscape.org/) -->
<svg
   xmlns:dc="http://purl.org/dc/elements/1.1/"
   xmlns:cc="http://creativecommons.org/ns#"
   xmlns:rdf="http://www.w3.org/1999/02/22-rdf-syntax-ns#"
   xmlns:svg="http://www.w3.org/2000/svg"
   xmlns="http://www.w3.org/2000/svg"
   xmlns:xlink="http://www.w3.org/1999/xlink"
   xmlns:sodipodi="http://sodipodi.sourceforge.net/DTD/sodipodi-0.dtd"
   xmlns:inkscape="http://www.inkscape.org/namespaces/inkscape"
   version="1.0"
   width="24"
   height="24"
   id="svg2"
   sodipodi:version="0.32"
   inkscape:version="0.46"
   sodipodi:docname="gnome-dev-harddisk.svg"
   inkscape:output_extension="org.inkscape.output.svg.inkscape">
  <metadata
     id="metadata49">
    <rdf:RDF>
      <cc:Work
         rdf:about="">
        <dc:format>image/svg+xml</dc:format>
        <dc:type
           rdf:resource="http://purl.org/dc/dcmitype/StillImage" />
      </cc:Work>
    </rdf:RDF>
  </metadata>
  <sodipodi:namedview
     inkscape:window-height="794"
     inkscape:window-width="1440"
     inkscape:pageshadow="2"
     inkscape:pageopacity="0.0"
     guidetolerance="10.0"
     gridtolerance="10.0"
     objecttolerance="10.0"
     borderopacity="1.0"
     bordercolor="#666666"
     pagecolor="#ffffff"
     id="base"
     showgrid="false"
     inkscape:zoom="19.416667"
     inkscape:cx="12"
     inkscape:cy="12"
     inkscape:window-x="0"
     inkscape:window-y="24"
     inkscape:current-layer="svg2" />
  <defs
     id="defs4">
    <linearGradient
       id="linearGradient5048">
      <stop
         id="stop5050"
         style="stop-color:#000000;stop-opacity:0"
         offset="0" />
      <stop
         id="stop5056"
         style="stop-color:#000000;stop-opacity:1"
         offset="0.5" />
      <stop
         id="stop5052"
         style="stop-color:#000000;stop-opacity:0"
         offset="1" />
    </linearGradient>
    <linearGradient
       x1="302.85715"
       y1="366.64789"
       x2="302.85715"
       y2="609.50507"
       id="linearGradient2570"
       xlink:href="#linearGradient5048"
       gradientUnits="userSpaceOnUse"
       gradientTransform="matrix(3.7767752e-2,0,0,1.0859966e-2,-1.650341,17.380799)" />
    <radialGradient
       cx="605.71429"
       cy="486.64789"
       r="117.14286"
       fx="605.71429"
       fy="486.64789"
       id="radialGradient2567"
       xlink:href="#linearGradient5060"
       gradientUnits="userSpaceOnUse"
       gradientTransform="matrix(2.2182621e-2,0,0,1.0859966e-2,7.7407365,17.380799)" />
    <linearGradient
       id="linearGradient5060">
      <stop
         id="stop5062"
         style="stop-color:#000000;stop-opacity:1"
         offset="0" />
      <stop
         id="stop5064"
         style="stop-color:#000000;stop-opacity:0"
         offset="1" />
    </linearGradient>
    <radialGradient
       cx="605.71429"
       cy="486.64789"
       r="117.14286"
       fx="605.71429"
       fy="486.64789"
       id="radialGradient2564"
       xlink:href="#linearGradient5060"
       gradientUnits="userSpaceOnUse"
       gradientTransform="matrix(-2.2182621e-2,0,0,1.0859966e-2,16.259269,17.380799)" />
    <linearGradient
       id="linearGradient3341">
      <stop
         id="stop3343"
         style="stop-color:#333333;stop-opacity:1"
         offset="0" />
      <stop
         id="stop3345"
         style="stop-color:#000000;stop-opacity:1"
         offset="1" />
    </linearGradient>
    <linearGradient
       x1="27.566711"
       y1="44.514233"
       x2="27.566711"
       y2="52.980434"
       id="linearGradient2556"
       xlink:href="#linearGradient3341"
       gradientUnits="userSpaceOnUse"
       gradientTransform="matrix(0.3655652,0,0,0.4810035,0.296554,-3.051373)" />
    <linearGradient
       id="linearGradient2215">
      <stop
         id="stop2223"
         style="stop-color:#555556;stop-opacity:1"
         offset="0" />
      <stop
         id="stop2219"
         style="stop-color:#0c0c0d;stop-opacity:1"
         offset="1" />
    </linearGradient>
    <linearGradient
       x1="53.99139"
       y1="87.89592"
       x2="53.99139"
       y2="104.28131"
       id="linearGradient2553"
       xlink:href="#linearGradient2215"
       gradientUnits="userSpaceOnUse"
       gradientTransform="matrix(0.1904597,0,0,0.2485308,9.0799e-2,-3.484712)" />
    <linearGradient
       id="linearGradient3484">
      <stop
         id="stop3486"
         style="stop-color:#9b9b9b;stop-opacity:1"
         offset="0" />
      <stop
         id="stop3488"
         style="stop-color:#b6b6b6;stop-opacity:1"
         offset="1" />
    </linearGradient>
    <linearGradient
       x1="7.8514447"
       y1="19.967693"
       x2="7.8514447"
       y2="7.034781"
       id="linearGradient2561"
       xlink:href="#linearGradient3484"
       gradientUnits="userSpaceOnUse"
       gradientTransform="matrix(0.9892473,0,0,1.4696392,0.129032,-10.33859)" />
    <linearGradient
       id="linearGradient7056">
      <stop
         id="stop7064"
         style="stop-color:#e1e1e2;stop-opacity:1"
         offset="0" />
      <stop
         id="stop7060"
         style="stop-color:#d2d2d3;stop-opacity:1"
         offset="1" />
    </linearGradient>
    <linearGradient
       x1="-35.53907"
       y1="-144.20657"
       x2="-35.53907"
       y2="-108.32133"
       id="linearGradient2559"
       xlink:href="#linearGradient7056"
       gradientUnits="userSpaceOnUse"
       gradientTransform="matrix(0.3618486,0,0,0.5333333,27.689672,76.910171)" />
    <linearGradient
       id="linearGradient7056-300">
      <stop
         id="stop3597"
         style="stop-color:#cbcbcb;stop-opacity:1"
         offset="0" />
      <stop
         id="stop3599"
         style="stop-color:#bdbdbe;stop-opacity:1"
         offset="1" />
    </linearGradient>
    <linearGradient
       x1="35.341114"
       y1="37.03133"
       x2="35.341114"
       y2="13.899854"
       id="linearGradient3371"
       xlink:href="#linearGradient7056-300"
       gradientUnits="userSpaceOnUse"
       gradientTransform="matrix(0.569328,0,0,0.6484696,-4.8442861,-7.0136316)" />
    <linearGradient
       id="linearGradient3776">
      <stop
         id="stop3778"
         style="stop-color:#a0a0a1;stop-opacity:1"
         offset="0" />
      <stop
         id="stop3780"
         style="stop-color:#e0e0e1;stop-opacity:1"
         offset="1" />
    </linearGradient>
    <linearGradient
       x1="44.261497"
       y1="53.951618"
       x2="44.261497"
       y2="28.299864"
       id="linearGradient3373"
       xlink:href="#linearGradient3776"
       gradientUnits="userSpaceOnUse"
       gradientTransform="matrix(0.1150977,0,0,0.1380877,7.972223,6.390092)" />
  </defs>
  <g
     id="layer1">
    <rect
       width="18.236429"
       height="2.6374204"
       x="2.8817775"
       y="21.362579"
       id="rect2723"
       style="opacity:0.40206185;fill:url(#linearGradient2570);fill-opacity:1;fill-rule:nonzero;stroke:none;stroke-width:1;stroke-linecap:round;stroke-linejoin:miter;marker:none;marker-start:none;marker-mid:none;marker-end:none;stroke-miterlimit:4;stroke-dasharray:none;stroke-dashoffset:0;stroke-opacity:1;visibility:visible;display:inline;overflow:visible" />
    <path
       d="M 21.109321,21.362672 C 21.109321,21.362672 21.109321,23.999946 21.109321,23.999946 C 22.251669,24.004912 23.870968,23.409066 23.870968,22.68114 C 23.870968,21.953213 22.596194,21.362672 21.109321,21.362672 z"
       id="path2725"
       style="opacity:0.40206185;fill:url(#radialGradient2567);fill-opacity:1;fill-rule:nonzero;stroke:none;stroke-width:1;stroke-linecap:round;stroke-linejoin:miter;marker:none;marker-start:none;marker-mid:none;marker-end:none;stroke-miterlimit:4;stroke-dasharray:none;stroke-dashoffset:0;stroke-opacity:1;visibility:visible;display:inline;overflow:visible" />
    <path
       d="M 2.890679,21.362672 C 2.890679,21.362672 2.890679,23.999946 2.890679,23.999946 C 1.748326,24.004912 0.129032,23.409066 0.129032,22.68114 C 0.129032,21.953213 1.403811,21.362672 2.890679,21.362672 z"
       id="path2727"
       style="opacity:0.40206185;fill:url(#radialGradient2564);fill-opacity:1;fill-rule:nonzero;stroke:none;stroke-width:1;stroke-linecap:round;stroke-linejoin:miter;marker:none;marker-start:none;marker-mid:none;marker-end:none;stroke-miterlimit:4;stroke-dasharray:none;stroke-dashoffset:0;stroke-opacity:1;visibility:visible;display:inline;overflow:visible" />
    <path
       d="M 0.526971,18.653166 C 8.174242,18.653166 15.821511,18.653166 23.468783,18.653166 C 23.530405,18.810173 23.478744,18.880604 23.495753,19.070857 C 23.029366,22.450907 23.148621,22.481514 22.304097,22.481514 C 21.973311,22.529742 8.966677,22.481514 1.649843,22.481514 C 0.732704,22.481514 0.964437,22.547276 0.5,18.502949 L 0.526971,18.653166 z"
       id="rect2992"
       style="fill:url(#linearGradient2553);fill-opacity:1;fill-rule:nonzero;stroke:url(#linearGradient2556);stroke-width:0.99999994;stroke-linecap:butt;stroke-linejoin:miter;marker:none;marker-start:none;marker-mid:none;marker-end:none;stroke-miterlimit:4;stroke-dasharray:none;stroke-dashoffset:0;stroke-opacity:1;visibility:visible;display:inline;overflow:visible;enable-background:accumulate" />
    <path
       d="M 2.524268,1.9486449 L 0.522616,18.483328 C 0.507667,18.483328 0.5,18.487682 0.5,18.499999 L 23.5,18.499999 C 23.5,18.487682 23.492332,18.483328 23.477385,18.483328 L 21.133502,1.6151021 C 21.133502,1.6151021 20.845625,0.50000001 19.738729,0.50000001 C 18.683568,0.50000001 5.105145,0.50000001 3.993517,0.50000001 C 2.830208,0.50000001 2.524268,1.9486449 2.524268,1.9486449 z"
       id="rect2990"
       style="fill:url(#linearGradient2559);fill-opacity:1;fill-rule:nonzero;stroke:url(#linearGradient2561);stroke-width:0.99999994;stroke-linecap:round;stroke-linejoin:round;marker:none;marker-start:none;marker-mid:none;marker-end:none;stroke-miterlimit:4;stroke-dasharray:none;stroke-dashoffset:0;stroke-opacity:1;visibility:visible;display:inline;overflow:visible;enable-background:accumulate" />
    <path
       d="M 1.499053,18.5 L 22.500948,18.5"
       id="path2215"
       style="opacity:0.6;fill:none;fill-opacity:1;fill-rule:evenodd;stroke:#ffffff;stroke-width:0.99999994;stroke-linecap:round;stroke-linejoin:round;stroke-miterlimit:4;stroke-dasharray:none;stroke-opacity:1;display:inline" />
    <path
       d="M 5.6666664,3 L 4.1090087,4.0379919 L 3.4756754,7.3962005 C 3.3801796,7.6270213 3.3216215,7.8585813 3.3216215,8.108548 C 3.3216215,8.1224276 3.3213026,8.1354267 3.3216215,8.1492535 L 3.3045043,8.2510174 C 3.3159869,8.251509 3.3273174,8.2504091 3.3387386,8.2510174 C 3.3844405,8.8097497 3.6784912,9.3261177 4.1603601,9.7571232 C 3.1273024,10.620126 2.5,11.688077 2.5,12.850747 C 2.5,15.698353 6.1716821,17.999999 10.699098,18 C 10.982061,18 11.262121,17.997199 11.537837,17.979647 L 19.411711,17.979647 L 21.5,16.16825 L 18.949548,4.0379919 L 17.357655,3 L 5.6666664,3 z"
       id="path3365"
       style="opacity:0.4;fill:#ffffff;fill-opacity:1;fill-rule:nonzero;stroke:none;stroke-width:0.8855623;stroke-linecap:round;stroke-linejoin:round;marker:none;marker-start:none;marker-mid:none;marker-end:none;stroke-miterlimit:4;stroke-dasharray:none;stroke-dashoffset:0;stroke-opacity:1;visibility:visible;display:inline;overflow:visible;enable-background:accumulate" />
    <path
       d="M 5.6682911,2 L 4.1106334,3.0379919 L 3.4773001,6.3962009 C 3.3818043,6.6270216 3.3232463,6.8585814 3.3232463,7.1085482 C 3.3232463,7.1224277 3.3229273,7.1354268 3.3232463,7.1492537 L 3.3061291,7.2510177 C 3.3176117,7.2515093 3.3289422,7.2504093 3.3403633,7.2510177 C 3.3860653,7.80975 3.6801159,8.326118 4.1619849,8.7571235 C 3.1289272,9.6201257 2.5016248,10.688076 2.5016248,11.850747 C 2.5016248,14.698353 6.1733068,16.999999 10.700723,17 C 10.983686,17 11.263745,16.997199 11.539462,16.979647 L 19.413336,16.979647 L 21.501625,15.16825 L 18.951172,3.0379919 L 17.35928,2 L 5.6682911,2 z"
       id="path3367"
       style="fill:url(#linearGradient3371);fill-opacity:1;fill-rule:nonzero;stroke:none;stroke-width:0.8855623;stroke-linecap:round;stroke-linejoin:round;marker:none;marker-start:none;marker-mid:none;marker-end:none;stroke-miterlimit:4;stroke-dasharray:none;stroke-dashoffset:0;stroke-opacity:1;visibility:visible;display:inline;overflow:visible;enable-background:accumulate" />
    <path
       d="M 14.5,12 C 14.500296,12.828375 13.380923,13.499999 12,13.499999 C 10.619079,13.499999 9.4997043,12.828375 9.5000003,12 C 9.4997043,11.171624 10.619079,10.5 12,10.5 C 13.380923,10.5 14.500296,11.171624 14.5,12 z"
       id="path3369"
       style="fill:#d4d4d5;fill-opacity:1;fill-rule:nonzero;stroke:url(#linearGradient3373);stroke-width:1.00000012;stroke-linecap:round;stroke-linejoin:round;marker:none;marker-start:none;marker-mid:none;marker-end:none;stroke-miterlimit:4;stroke-dasharray:none;stroke-dashoffset:0;stroke-opacity:1;visibility:visible;display:inline;overflow:visible;enable-background:accumulate" />
  </g>
</svg>
